packages/core/src/svgs/tokens/mono/BFR.svg

<svg width="24" height="24" viewBox="0 0 24 24" fill="none" xmlns="http://www.w3.org/2000/svg">
<path d="M2 3.4707H7.92352C8.18234 3.4707 8.42352 3.60011 8.57058 3.82364L12 8.76478L15.4293 3.82364C15.5765 3.60011 15.8176 3.4707 16.0765 3.4707H22L21.0352 4.94129C20.9839 5.03019 20.9102 5.10412 20.8215 5.15571C20.7327 5.20731 20.632 5.23478 20.5294 5.2354H16.9C16.8227 5.23607 16.7467 5.25508 16.6781 5.29088C16.6096 5.32666 16.5506 5.37821 16.5058 5.44128L15.1176 7.58835H19.5294L18.4117 9.13537C18.3678 9.20139 18.3084 9.25575 18.2387 9.29376C18.1689 9.33165 18.0911 9.35196 18.0118 9.35306H14.353C14.0588 9.35306 13.1764 10.1413 13.1764 10.6118C13.1764 11.0825 13.4353 11.9236 14.1647 12.9001L14.1765 12.9177C14.9236 13.9118 15.5294 15.3707 15.5294 16.5648C15.5294 19.4884 13.2529 20.4236 12 20.5294C10.747 20.4236 8.47058 19.4884 8.47058 16.5707C8.47058 15.3707 9.07646 13.9118 9.82358 12.9236L9.83524 12.9001C10.5648 11.9236 10.8235 11.0766 10.8235 10.6059C10.8235 10.1413 10.0295 9.35306 9.73532 9.35306H6.07647C5.99712 9.35196 5.91923 9.33165 5.84953 9.29376C5.77983 9.25575 5.72043 9.20139 5.67647 9.13537L4.47059 7.58835H8.87647L7.38822 5.44128C7.34352 5.37821 7.28449 5.32666 7.21597 5.29088C7.14745 5.25508 7.07141 5.23607 6.99411 5.2354H3.3647C3.26204 5.23478 3.16134 5.20731 3.07259 5.15571C2.98384 5.10412 2.91014 5.03019 2.85882 4.94129L2 3.4707ZM12 18.7648C13.2353 18.7648 13.7647 17.4 13.7647 16.5707C13.7647 15.9001 12.6588 13.9236 12 13.0237C11.3412 13.9295 10.2353 15.906 10.2353 16.5707C10.2353 17.4 10.7647 18.7648 12 18.7648Z" fill="white"/>
</svg>

<svg xmlns="http://www.w3.org/2000/svg" width="24" height="24" fill="none" viewBox="0 0 24 24">
    <path fill="#fff" d="M2 3.47h5.924c.258 0 .5.13.647.354L12 8.764l3.43-4.94a.77.77 0 0 1 .646-.353H22l-.965 1.47a.59.59 0 0 1-.506.294H16.9a.49.49 0 0 0-.394.206l-1.388 2.147h4.411l-1.117 1.547a.49.49 0 0 1-.4.218h-3.659c-.294 0-1.177.788-1.177 1.259s.26 1.312.989 2.288l.012.018c.747.994 1.352 2.453 1.352 3.647 0 2.923-2.276 3.859-3.529 3.964-1.253-.105-3.53-1.04-3.53-3.958 0-1.2.606-2.66 1.354-3.647l.011-.024c.73-.976.988-1.823.988-2.294 0-.465-.793-1.253-1.088-1.253H6.076a.49.49 0 0 1-.4-.218L4.471 7.588h4.405L7.388 5.441a.49.49 0 0 0-.394-.206h-3.63a.59.59 0 0 1-.505-.294zm10 15.295c1.235 0 1.765-1.365 1.765-2.194 0-.67-1.106-2.647-1.765-3.547-.659.906-1.765 2.882-1.765 3.547 0 .829.53 2.194 1.765 2.194"/>
</svg>
